Newaita-dark/mimetypes/32/application-x-cba.svg

<svg height="32" viewBox="0 0 32 32" width="32" xmlns="http://www.w3.org/2000/svg" xmlns:xlink="http://www.w3.org/1999/xlink"><linearGradient id="a" gradientUnits="userSpaceOnUse" x1="15.87652" x2="15.87652" y1="28.033936" y2="29.35698000003"><stop offset="0" stop-opacity=".27451"/><stop offset="1" stop-opacity="0"/></linearGradient><linearGradient id="b"><stop offset="0" stop-opacity=".313726"/><stop offset=".222222" stop-opacity=".27451"/><stop offset="1" stop-opacity="0"/></linearGradient><radialGradient id="c" cx="450.908936" cy="189.579361" gradientTransform="matrix(.00000017 -.0781325 -.140638 -.0000001 50.146086 63.595333)" gradientUnits="userSpaceOnUse" r="21.166656" xlink:href="#b"/><radialGradient id="d" cx="450.908936" cy="189.579361" gradientTransform="matrix(-.00000017 .0781325 .140638 .0000001 -18.393049 -7.52748)" gradientUnits="userSpaceOnUse" r="21.166656" xlink:href="#b"/><radialGradient id="e" cx="450.908936" cy="189.579361" gradientTransform="matrix(-.00000017 -.0781325 .140638 -.0000001 -18.393049 63.595333)" gradientUnits="userSpaceOnUse" r="21.166656" xlink:href="#b"/><radialGradient id="f" cx="450.908936" cy="189.579361" gradientTransform="matrix(.00000017 .0781325 -.140638 .0000001 50.146084 -7.527479)" gradientUnits="userSpaceOnUse" r="21.166656" xlink:href="#b"/><linearGradient id="g" gradientTransform="matrix(.0753497 0 0 .217412 -5.854013 33.641348)" gradientUnits="userSpaceOnUse" x1="306.916656" x2="305.954559" y1="-25.791676" y2="-141.414581"><stop offset="0" stop-color="#9fa8da"/><stop offset="1" stop-color="#c5cae9"/></linearGradient><linearGradient id="h"><stop offset="0" stop-color="#5c6bc0"/><stop offset="1" stop-color="#7986cb"/></linearGradient><linearGradient id="i" gradientTransform="matrix(4.556143 0 0 13.146184 -353.972656 2034.180176)" gradientUnits="userSpaceOnUse" x1="165.484848" x2="165.484848" xlink:href="#h" y1="-25.791672" y2="-141.414581"/><linearGradient id="j" gradientUnits="userSpaceOnUse" x1="17.19956699994" x2="17.19956699994" xlink:href="#h" y1="28.033934" y2="2.89610500006"/><path d="m7.9375 28.035156h15.878906v1.320313h-15.878906zm0 0" fill="url(#a)"/><path d="m23.816406 28.035156h2.644532v-1.324218h-2.644532zm0 0" fill="url(#c)"/><path d="m7.9375 28.035156h-2.644531v1.320313h2.644531zm0 0" fill="url(#d)"/><path d="m7.9375 28.035156h-2.644531v-1.324218h2.644531zm0 0" fill="url(#e)"/><path d="m23.816406 28.035156h2.644532v1.320313h-2.644532zm0 0" fill="url(#f)"/><path d="m6.613281 2.894531h18.523438c.730469 0 1.324219.59375 1.324219 1.324219v22.492188c0 .730468-.59375 1.324218-1.324219 1.324218h-18.523438c-.730469 0-1.320312-.59375-1.320312-1.324218v-22.492188c0-.730469.589843-1.324219 1.320312-1.324219zm0 0" fill="url(#g)"/><path d="m399.883094 175.022665c-44.169013 0-79.8349 35.665888-79.8349 80.071098v1360.027676c0 44.405211 35.665887 80.071098 79.8349 80.071098h120.224746v-1520.169872zm0 0" fill="url(#i)" stroke="#212121" stroke-linecap="round" stroke-width="11.338583" transform="scale(.016538)"/><path d="m6.613281 27.960938c-.730469 0-1.320312-.59375-1.320312-1.324219v-.164063c0 .730469.589843 1.320313 1.320312 1.320313h18.523438c.734375 0 1.324219-.589844 1.324219-1.320313v.164063c0 .730469-.589844 1.324219-1.324219 1.324219zm0 0" fill-opacity=".196078"/><path d="m6.613281 2.972656c-.730469 0-1.320312.589844-1.320312 1.320313v.167969c0-.734376.589843-1.324219 1.320312-1.324219h18.523438c.734375 0 1.324219.589843 1.324219 1.324219v-.167969c0-.730469-.589844-1.320313-1.324219-1.320313zm0 0" fill="#fff" fill-opacity=".392157"/><path d="m6.617188 2.800781c-.785157 0-1.417969.636719-1.417969 1.417969v22.492188c0 .785156.632812 1.417968 1.417969 1.417968h18.519531c.785156 0 1.417969-.632812 1.417969-1.417968v-22.492188c0-.78125-.632813-1.417969-1.417969-1.417969zm0 .1875h18.519531c.683593 0 1.230469.546875 1.230469 1.230469v22.492188c0 .683593-.546876 1.230468-1.230469 1.230468h-18.519531c-.683594 0-1.230469-.546875-1.230469-1.230468v-22.492188c0-.683594.546875-1.230469 1.230469-1.230469zm0 0" fill="#212121"/><path d="m12.238281 9.511719c-.550781 0-.992187.441406-.992187.992187v7.277344c0 .546875.441406.992188.992187.992188h7.335938l2.453125 2.449218c.414062.414063 1.121094.121094 1.121094-.464844v-2.039062c.390624-.136719.667968-.503906.667968-.9375v-7.277344c0-.550781-.445312-.992187-.992187-.992187zm0 0" fill="url(#j)"/><path d="m12.238281 9.511719c-.550781 0-.992187.441406-.992187.992187v.332032c0-.550782.441406-.992188.992187-.992188h10.585938c.546875 0 .992187.441406.992187.992188v-.332032c0-.550781-.445312-.992187-.992187-.992187zm0 0" fill-opacity=".235294"/><path d="m11.246094 17.835938v.273437c0 .550781.441406.992187.992187.992187h7.335938l2.453125 2.453126c.414062.414062 1.121094.121093 1.121094-.464844v-.277344c0 .585938-.707032.878906-1.121094.464844l-2.453125-2.449219h-7.335938c-.550781 0-.992187-.441406-.992187-.992187zm12.570312 0c0 .433593-.277344.800781-.667968.9375v.273437c.390624-.132813.667968-.5.667968-.9375zm0 0" fill="#fff" fill-opacity=".392157"/><path d="m195.793803-62.827032c-8.811659 0-15.873485 7.061826-15.873485 15.873484v116.426382c0 8.749165 7.061826 15.873484 15.873485 15.873484h117.363792l39.246252 39.183758c6.624368 6.624368 17.935787 1.937315 17.935787-7.436789v-32.621885c6.249404-2.187291 10.68648-8.06173 10.68648-14.998568v-116.426382c0-8.811658-7.12432-15.873484-15.873484-15.873484zm0 0" fill="none" stroke="#212121" stroke-linecap="round" stroke-linejoin="round" stroke-width="3" transform="matrix(.062506 0 0 .062506 0 13.438783)"/></svg>

<svg xmlns="http://www.w3.org/2000/svg" xmlns:xlink="http://www.w3.org/1999/xlink" width="32px" height="32px" viewBox="0 0 32 32" version="1.1">
<defs>
<linearGradient id="linear0" gradientUnits="userSpaceOnUse" x1="31.75304" y1="56.067871" x2="31.75304" y2="58.713959" gradientTransform="matrix(0.5,0,0,0.5,0,0)">
<stop offset="0" style="stop-color:rgb(0%,0%,0%);stop-opacity:0.27451;"/>
<stop offset="1" style="stop-color:rgb(0%,0%,0%);stop-opacity:0;"/>
</linearGradient>
<radialGradient id="radial0" gradientUnits="userSpaceOnUse" cx="450.908936" cy="189.579361" fx="450.908936" fy="189.579361" r="21.166656" gradientTransform="matrix(0.000000175,-0.0781325,-0.140639,-0.0000001,50.146084,63.595333)">
<stop offset="0" style="stop-color:rgb(0%,0%,0%);stop-opacity:0.313726;"/>
<stop offset="0.222222" style="stop-color:rgb(0%,0%,0%);stop-opacity:0.27451;"/>
<stop offset="1" style="stop-color:rgb(0%,0%,0%);stop-opacity:0;"/>
</radialGradient>
<radialGradient id="radial1" gradientUnits="userSpaceOnUse" cx="450.908936" cy="189.579361" fx="450.908936" fy="189.579361" r="21.166656" gradientTransform="matrix(-0.000000175,0.0781325,0.140639,0.0000001,-18.393049,-7.527481)">
<stop offset="0" style="stop-color:rgb(0%,0%,0%);stop-opacity:0.313726;"/>
<stop offset="0.222222" style="stop-color:rgb(0%,0%,0%);stop-opacity:0.27451;"/>
<stop offset="1" style="stop-color:rgb(0%,0%,0%);stop-opacity:0;"/>
</radialGradient>
<radialGradient id="radial2" gradientUnits="userSpaceOnUse" cx="450.908936" cy="189.579361" fx="450.908936" fy="189.579361" r="21.166656" gradientTransform="matrix(-0.000000175,-0.0781325,0.140639,-0.0000001,-18.393049,63.595333)">
<stop offset="0" style="stop-color:rgb(0%,0%,0%);stop-opacity:0.313726;"/>
<stop offset="0.222222" style="stop-color:rgb(0%,0%,0%);stop-opacity:0.27451;"/>
<stop offset="1" style="stop-color:rgb(0%,0%,0%);stop-opacity:0;"/>
</radialGradient>
<radialGradient id="radial3" gradientUnits="userSpaceOnUse" cx="450.908936" cy="189.579361" fx="450.908936" fy="189.579361" r="21.166656" gradientTransform="matrix(0.000000175,0.0781325,-0.140639,0.0000001,50.146084,-7.52748)">
<stop offset="0" style="stop-color:rgb(0%,0%,0%);stop-opacity:0.313726;"/>
<stop offset="0.222222" style="stop-color:rgb(0%,0%,0%);stop-opacity:0.27451;"/>
<stop offset="1" style="stop-color:rgb(0%,0%,0%);stop-opacity:0;"/>
</radialGradient>
<linearGradient id="linear1" gradientUnits="userSpaceOnUse" x1="306.916656" y1="-25.791676" x2="305.954559" y2="-141.414581" gradientTransform="matrix(0.0753495,0,0,0.217412,-5.854013,33.64135)">
<stop offset="0" style="stop-color:rgb(62.352943%,65.882355%,85.490197%);stop-opacity:1;"/>
<stop offset="1" style="stop-color:rgb(77.254903%,79.215688%,91.37255%);stop-opacity:1;"/>
</linearGradient>
<linearGradient id="linear2" gradientUnits="userSpaceOnUse" x1="165.484848" y1="-25.791672" x2="165.484848" y2="-141.414581" gradientTransform="matrix(4.556143,0,0,13.146184,-353.972656,2034.180176)">
<stop offset="0" style="stop-color:rgb(36.078432%,41.960785%,75.294119%);stop-opacity:1;"/>
<stop offset="1" style="stop-color:rgb(47.450981%,52.549022%,79.607844%);stop-opacity:1;"/>
</linearGradient>
<linearGradient id="linear3" gradientUnits="userSpaceOnUse" x1="34.399136" y1="56.067867" x2="34.399136" y2="5.79221" gradientTransform="matrix(0.5,0,0,0.5,0,0)">
<stop offset="0" style="stop-color:rgb(36.078432%,41.960785%,75.294119%);stop-opacity:1;"/>
<stop offset="1" style="stop-color:rgb(47.450981%,52.549022%,79.607844%);stop-opacity:1;"/>
</linearGradient>
</defs>
<g id="surface1">
<path style=" stroke:none;fill-rule:nonzero;fill:url(#linear0);" d="M 7.9375 28.03125 L 23.8125 28.03125 L 23.8125 29.359375 L 7.9375 29.359375 Z M 7.9375 28.03125 "/>
<path style=" stroke:none;fill-rule:nonzero;fill:url(#radial0);" d="M 23.8125 28.03125 L 26.460938 28.03125 L 26.460938 26.710938 L 23.8125 26.710938 Z M 23.8125 28.03125 "/>
<path style=" stroke:none;fill-rule:nonzero;fill:url(#radial1);" d="M 7.9375 28.03125 L 5.292969 28.03125 L 5.292969 29.359375 L 7.9375 29.359375 Z M 7.9375 28.03125 "/>
<path style=" stroke:none;fill-rule:nonzero;fill:url(#radial2);" d="M 7.9375 28.03125 L 5.292969 28.03125 L 5.292969 26.710938 L 7.9375 26.710938 Z M 7.9375 28.03125 "/>
<path style=" stroke:none;fill-rule:nonzero;fill:url(#radial3);" d="M 23.8125 28.03125 L 26.460938 28.03125 L 26.460938 29.359375 L 23.8125 29.359375 Z M 23.8125 28.03125 "/>
<path style=" stroke:none;fill-rule:nonzero;fill:url(#linear1);" d="M 6.617188 2.898438 L 25.140625 2.898438 C 25.867188 2.898438 26.460938 3.488281 26.460938 4.21875 L 26.460938 26.710938 C 26.460938 27.441406 25.867188 28.03125 25.140625 28.03125 L 6.617188 28.03125 C 5.882812 28.03125 5.292969 27.441406 5.292969 26.710938 L 5.292969 4.21875 C 5.292969 3.488281 5.882812 2.898438 6.617188 2.898438 Z M 6.617188 2.898438 "/>
<path style="fill-rule:nonzero;fill:url(#linear2);stroke-width:11.338583;stroke-linecap:round;stroke-linejoin:miter;stroke:rgb(12.941177%,12.941177%,12.941177%);stroke-opacity:1;stroke-miterlimit:4;" d="M 400.118967 175.258721 C 355.713793 175.258721 320.047934 210.92458 320.047934 255.093557 L 320.047934 1615.12013 C 320.047934 1659.525304 355.713793 1695.191163 400.118967 1695.191163 L 520.107418 1695.191163 L 520.107418 175.258721 Z M 400.118967 175.258721 " transform="matrix(0.0165381,0,0,0.0165381,0,0)"/>
<path style=" stroke:none;fill-rule:nonzero;fill:rgb(0%,0%,0%);fill-opacity:0.196078;" d="M 6.617188 27.960938 C 5.882812 27.960938 5.292969 27.367188 5.292969 26.636719 L 5.292969 26.46875 C 5.292969 27.203125 5.882812 27.792969 6.617188 27.792969 L 25.140625 27.792969 C 25.871094 27.792969 26.460938 27.203125 26.460938 26.46875 L 26.460938 26.636719 C 26.460938 27.367188 25.871094 27.960938 25.140625 27.960938 Z M 6.617188 27.960938 "/>
<path style=" stroke:none;fill-rule:nonzero;fill:rgb(100%,100%,100%);fill-opacity:0.392157;" d="M 6.617188 2.96875 C 5.882812 2.96875 5.292969 3.5625 5.292969 4.292969 L 5.292969 4.460938 C 5.292969 3.726562 5.882812 3.132812 6.617188 3.136719 L 25.140625 3.136719 C 25.871094 3.132812 26.460938 3.726562 26.460938 4.460938 L 26.460938 4.292969 C 26.460938 3.5625 25.871094 2.96875 25.140625 2.96875 Z M 6.617188 2.96875 "/>
<path style=" stroke:none;fill-rule:nonzero;fill:rgb(12.941177%,12.941177%,12.941177%);fill-opacity:1;" d="M 6.617188 2.804688 C 5.832031 2.804688 5.199219 3.4375 5.199219 4.21875 L 5.199219 26.710938 C 5.199219 27.492188 5.832031 28.125 6.617188 28.125 L 25.140625 28.125 C 25.921875 28.125 26.554688 27.492188 26.554688 26.710938 L 26.554688 4.21875 C 26.554688 3.4375 25.921875 2.804688 25.140625 2.804688 Z M 6.617188 2.992188 L 25.140625 2.992188 C 25.820312 2.992188 26.367188 3.539062 26.367188 4.21875 L 26.367188 26.710938 C 26.367188 27.394531 25.820312 27.9375 25.140625 27.9375 L 6.617188 27.9375 C 5.929688 27.9375 5.386719 27.394531 5.386719 26.710938 L 5.386719 4.21875 C 5.386719 3.539062 5.929688 2.992188 6.617188 2.992188 Z M 6.617188 2.992188 "/>
<path style=" stroke:none;fill-rule:nonzero;fill:url(#linear3);" d="M 12.238281 9.511719 C 11.6875 9.511719 11.246094 9.953125 11.246094 10.503906 L 11.246094 17.78125 C 11.246094 18.328125 11.6875 18.773438 12.238281 18.773438 L 19.578125 18.773438 L 22.023438 21.222656 C 22.441406 21.636719 23.148438 21.34375 23.148438 20.757812 L 23.148438 18.71875 C 23.539062 18.582031 23.8125 18.214844 23.8125 17.78125 L 23.8125 10.503906 C 23.8125 9.953125 23.375 9.511719 22.820312 9.511719 Z M 12.238281 9.511719 "/>
<path style=" stroke:none;fill-rule:nonzero;fill:rgb(0%,0%,0%);fill-opacity:0.235294;" d="M 12.238281 9.511719 C 11.6875 9.511719 11.246094 9.953125 11.246094 10.503906 L 11.246094 10.835938 C 11.246094 10.285156 11.6875 9.84375 12.238281 9.84375 L 22.820312 9.84375 C 23.375 9.84375 23.8125 10.285156 23.8125 10.835938 L 23.8125 10.503906 C 23.8125 9.953125 23.375 9.511719 22.820312 9.511719 Z M 12.238281 9.511719 "/>
<path style=" stroke:none;fill-rule:nonzero;fill:rgb(100%,100%,100%);fill-opacity:0.392157;" d="M 11.246094 17.835938 L 11.246094 18.109375 C 11.246094 18.660156 11.6875 19.101562 12.238281 19.101562 L 19.578125 19.101562 L 22.023438 21.554688 C 22.441406 21.96875 23.148438 21.671875 23.148438 21.085938 L 23.148438 20.8125 C 23.148438 21.398438 22.441406 21.695312 22.023438 21.277344 L 19.578125 18.828125 L 12.238281 18.828125 C 11.6875 18.828125 11.246094 18.382812 11.246094 17.835938 Z M 23.8125 17.835938 C 23.8125 18.269531 23.539062 18.640625 23.148438 18.773438 L 23.148438 19.046875 C 23.539062 18.914062 23.8125 18.546875 23.8125 18.109375 Z M 23.8125 17.835938 "/>
<path style="fill:none;stroke-width:3;stroke-linecap:round;stroke-linejoin:round;stroke:rgb(12.941177%,12.941177%,12.941177%);stroke-opacity:1;stroke-miterlimit:4;" d="M 195.793711 -62.826994 C 186.982057 -62.826994 179.920234 -55.765172 179.920234 -46.953517 L 179.920234 69.47281 C 179.920234 78.284464 186.982057 85.346287 195.793711 85.346287 L 313.219942 85.346287 L 352.403682 124.530027 C 359.028046 131.154391 370.401955 126.467341 370.401955 117.09324 L 370.401955 84.471371 C 376.588861 82.284081 381.025935 76.409644 381.025935 69.47281 L 381.025935 -46.953517 C 381.025935 -55.765172 373.964113 -62.826994 365.152459 -62.826994 Z M 195.793711 -62.826994 " transform="matrix(0.062506,0,0,0.062506,0,13.438783)"/>
</g>
</svg>
